app/assets/images/aide-redaction.svg

<svg width="23" height="23" viewBox="0 0 23 23" fill="none" xmlns="http://www.w3.org/2000/svg">
<circle cx="11.5" cy="11.5" r="11.5" fill="#9ADBD0"/>
<path d="M9.67938 12.2899C9.67938 12.0287 9.76477 11.8127 9.93556 11.6419C10.1063 11.4611 10.3223 11.3707 10.5835 11.3707C11.2466 11.3707 11.779 11.215 12.1808 10.9035C12.5827 10.5921 12.7836 10.1099 12.7836 9.45691C12.7836 8.95461 12.6028 8.5377 12.2411 8.20619C11.8795 7.87467 11.4274 7.70891 10.8849 7.70891C10.3324 7.70891 9.84514 7.89476 9.42321 8.26646C9.18211 8.48747 8.93096 8.59798 8.66976 8.59798C8.47889 8.59798 8.30811 8.5377 8.15742 8.41715C7.89622 8.21623 7.76562 7.98015 7.76562 7.70891C7.76562 7.47785 7.86106 7.26689 8.05194 7.07601C8.41359 6.70431 8.83552 6.418 9.31773 6.21708C9.80998 6.00612 10.3324 5.90063 10.8849 5.90063C11.568 5.90063 12.1909 6.05635 12.7535 6.36777C13.316 6.6792 13.7631 7.11117 14.0946 7.6637C14.4261 8.20619 14.5919 8.80392 14.5919 9.45691C14.5919 10.4213 14.3156 11.1848 13.7631 11.7474C13.2105 12.31 12.4772 12.6616 11.563 12.8022C11.5128 12.8223 11.4877 12.8474 11.4877 12.8776V13.4351C11.4877 13.6963 11.4023 13.9173 11.2315 14.0982C11.0607 14.2689 10.8447 14.3543 10.5835 14.3543C10.3223 14.3543 10.1063 14.2689 9.93556 14.0982C9.76477 13.9173 9.67938 13.6963 9.67938 13.4351V12.2899ZM10.5082 17.0517C10.2168 17.0517 9.99081 16.9763 9.83007 16.8256C9.67938 16.6649 9.60404 16.4389 9.60404 16.1475V15.8914C9.60404 15.6 9.67938 15.379 9.83007 15.2283C9.99081 15.0676 10.2168 14.9872 10.5082 14.9872H10.7041C10.9954 14.9872 11.2164 15.0676 11.3671 15.2283C11.5278 15.379 11.6082 15.6 11.6082 15.8914V16.1475C11.6082 16.4389 11.5278 16.6649 11.3671 16.8256C11.2164 16.9763 10.9954 17.0517 10.7041 17.0517H10.5082Z" fill="#FBF9FA"/>
</svg>

<svg width="23" height="23" fill="none" xmlns="http://www.w3.org/2000/svg"><circle cx="11.5" cy="11.5" r="11.5" fill="#9ADBD0"/><path d="M9.68 12.29c0-.261.085-.477.256-.648a.853.853 0 01.648-.271c.663 0 1.195-.156 1.597-.468.402-.31.603-.793.603-1.446 0-.502-.181-.92-.543-1.25-.361-.332-.814-.498-1.356-.498-.553 0-1.04.186-1.462.557-.24.221-.492.332-.753.332a.798.798 0 01-.513-.18c-.26-.202-.391-.438-.391-.71 0-.23.095-.441.286-.632a3.771 3.771 0 011.266-.859 3.937 3.937 0 011.567-.316c.683 0 1.306.155 1.869.467.562.311 1.01.743 1.34 1.296.332.542.498 1.14.498 1.793 0 .964-.276 1.728-.829 2.29-.553.563-1.286.915-2.2 1.055-.05.02-.075.045-.075.076v.557a.93.93 0 01-.256.663.879.879 0 01-.648.256.878.878 0 01-.648-.256.93.93 0 01-.257-.663V12.29zm.828 4.762c-.291 0-.517-.076-.678-.226-.15-.161-.226-.387-.226-.678v-.257c0-.291.075-.512.226-.663.16-.16.387-.24.678-.24h.196c.291 0 .512.08.663.24.16.151.241.372.241.663v.257c0 .29-.08.517-.24.678-.152.15-.373.226-.664.226h-.196z" fill="#FBF9FA"/></svg>
